X:36
T:Prairie Reel
C:Andy De Jarlis
M:2/4
L:1/16
Z:abc by Bruce Osborne - bosborne@kos.net
K:D
fg|afdf afbf|afde fdfd|cdef gece|defg a2fg|!
afdf afbf|afde fdfd|cdef gece|[d2f2][df][df] [d2f2]:|!
|:[FA][EA]|DFAc B2Ac|defd A2AF|G2B[GB] [F2A2][FA][FA]|[EA][DA][EA][FA] E2FE|!
DFAc B2Ac|defd AdcB|A3d c2ec|[d2f2][df][df] [d2f2]:|!
